!!!!SEGMENT: pl-cz--ii-87--002-007_grim-jozef--spiewy-do-dwoch-mszy-agnus-dei.krn
!!!cenid: 18xx:1179
!!!COM: Grim, Józef
!!!COM-rismid: pe30003883
!!!CDT: ~1800-~1899
!!!CNT:
!!!OPR: Śpiewy do dwóch mszy
!!!OTL: Agnus Dei
!!!OMV: 007
!!!PDT: 1888
!!!AGN: Sacred; Mass
!!!SMS-siglum: PL-CZ
!!!SMS-shelfmark: II-87
!!!SMS-shelfwork: 002-007 M
!!!SMS-variant:
!!!SMS-altvar:
!!!NIFC-rismid: 300033225
!!!URL-scan: http://repozytorium.nifc.pl/skany/pl-cz-nut--ii-87
!!!ONB-nifc: UWAGA: części Mszy: Kirie, Gloria, Credo, Offertorium, Sanctus, Benedictus, Agnus Dei
!!!AIN: 1 organ
!!!key: G
!!!OMD: Andante
**kern	**kern	**kern	**text	**text
*part2	*part2	*part1	*part1	*part1
*staff3	*staff2	*staff1	*staff1	*staff1
*I"Organ	*I"Organ	*	*I"Głos	*
*Iorgan	*Iorgan	*	*Ivox	*
*ICklav	*ICklav	*	*ICvox	*
*IGacmp	*IGacmp	*	*IGsolo	*
*clefF4	*clefG2	*clefG2	*	*
*k[f#]	*k[f#]	*k[f#]	*	*
*G:	*G:	*G:	*	*
*M3/4	*M3/4	*M3/4	*	*
=1	=1	=1	=1	=1
2.r	(4g/	2.r	.	.
.	8b/L	.	.	.
.	8f#/	.	.	.
.	8g/	.	.	.
.	8e/J)	.	.	.
=2	=2	=2	=2	=2
*^	*^	*	*	*
4r	4ryy	2.d/	4rc	2.r	.	.
4r	4ryy	.	4rc	.	.	.
(4G#X/	[4D\	.	4B\	.	.	.
=3	=3	=3	=3	=3	=3	=3
4A/)	4D\]	2.d/	4c\	2.r	.	.
4r	4r	.	4r	.	.	.
4F#/	4D\	.	4A\	.	.	.
*v	*v	*	*	*	*	*
*	*v	*v	*	*	*
=4||	=4||	=4||	=4||	=4||
2.G 2.D 2.GG\	4g 4B/	4g/	Niech	Wy
.	4a 4c/	4a/	się	któ-
.	4b 4d/	4b/	na	-rzy
=5	=5	=5	=5	=5
4C/	4cc 4e 4c/	4a/	ser-	czy-
4D/	4g 4d 4B/	4g/	-cu	-sci
4D/	4f# 4d 4A/	4f#/	nie	je-
=6	=6	=6	=6	=6
4GG/	2.g 2.d 2.B/	2.g/	trwo-	-ste-
4D\	.	.	.	.
4BB/	.	.	.	.
=7	=7	=7	=7	=7
4GG/	4.g 4.d 4.B/	2g/	-ży	-scie
8G\	.	.	.	.
8r	8f#/L	.	.	.
4r	8g/	4r	.	.
.	8a/J	.	.	.
!!LO:LB:g=original
=8	=8	=8	=8	=8
2.B 2.F# 2.BB\	4b 4d/	4b\	ko-	ko-
.	4cc#X 4e/	4cc#X\	-go	-go
.	4dd 4f#/	4dd\	su-	żal
=9	=9	=9	=9	=9
4E\	4cc#X 4g 4e/	4cc#X\	-mie-	o-
4F#\	4b 4f# 4d/	4b\	-nie	-mył
4FF#/	4a#X 4e 4c#X/	4a#X/	przy-	i
=10	=10	=10	=10	=10
*	*^	*	*	*
4BB/	[2.b/	[>2.f# [2.d\	2.b\	-gnia-	skru-
4F#\	.	.	.	.	.
4D\	.	.	.	.	.
=11	=11	=11	=11	=11	=11
4BB/	2b/]	2f#] 2d\]	2b\	-ży	-cha
4B\	.	.	.	.	.
4r	8a/L	4ryy	4r	.	.
.	8b/J	.	.	.	.
=12	=12	=12	=12	=12	=12
*^	*	*	*	*	*
4A/	4AA\	4cc/	2e\	4cc\	Gdy	do
2G/	2C\	4g/	.	4g/	o-	sto-
.	.	4a/	4e-X\	4a/	-to	-łu
=13	=13	=13	=13	=13	=13	=13
4G 4GG/	4ryy	4b/	2.d\	4b\	Ba-	Bo-
4F#/	2BB\	4f#/	.	4f#/	-ra-	-że-
[4E/	.	4g/	.	4g/	-nek	-go
=14	=14	=14	=14	=14	=14	=14
4E/]	4FF#\	2a/	4c\	(2a/	Bo-	spie-
2D#X 2BB\	2ryy	.	2B\	.	.	.
.	.	4b/	.	4b/)	.	.
*v	*v	*	*	*	*	*
=15	=15	=15	=15	=15	=15
*	*	*	*^	*	*
4E 4EE/	2g/	2B\	2g/	2reyy	-ży	-szcie
4E\	.	.	.	.	.	.
4r	8g/L	4rcyy	8g/	8g\L	któ-	bo
.	8a/J	.	8a/	8a\J	-ry	.
*	*	*	*v	*v	*	*
!!LO:LB:g=original
=16	=16	=16	=16	=16	=16
*^	*	*	*	*	*
2.ryy	[>2.D\	4b/	4g 4d\	(4b/	gła-	da-
.	.	4a/	4f# 4c\	4a/)	.	.
.	.	4g/	4B\	4g/	-dzi	-na
=17	=17	=17	=17	=17	=17	=17
4G/	2.D\]	4dd 4b/	2.d\	(4dd\	grze-	ucz-
4A/	.	4cc 4a/	.	4cc\)	.	-ta
4B/	.	4b 4g/	.	4b\	-chy	dla
=18	=18	=18	=18	=18	=18	=18
4c/	2.D\	2.a/	4g 4e\	2.a/	swia-	du-
4d/	.	.	2f# 2d\	.	.	.
4c/	.	.	.	.	.	.
*v	*v	*	*	*	*	*
=19	=19	=19	=19	=19	=19
4G\	2g/	2d 2B\	2g/	-ta.	-cha.
2GG/	.	.	.	.	.
!	!LO:TX:b:t=Finis	!	!	!	!
.	4r	4rcyy	4r	.	.
*	*v	*v	*	*	*
==	==	==	==	==
*-	*-	*-	*-	*-
!!!system-decoration: <s1>(s2,s3)
!!!RDF**kern: > = above
!!!ENC: Marcin Jachim
!!!END: 2020-11-07
!!!ENC: Marta Lawrence
!!!END: 2021-11-14
